; generated by PrusaSlicer 2.3.0+win64 on 2021-02-13 at 20:26:55 UTC

; 

; external perimeters extrusion width = 0.45mm
; perimeters extrusion width = 0.45mm
; infill extrusion width = 0.45mm
; solid infill extrusion width = 0.45mm
; top infill extrusion width = 0.40mm
; first layer extrusion width = 0.42mm

M201 X500 Y500 Z100 E5000 ; sets maximum accelerations, mm/sec^2
M203 X500 Y500 Z10 E60 ; sets maximum feedrates, mm/sec
M204 P500 R1000 T500 ; sets acceleration (P, T) and retract acceleration (R), mm/sec^2
M205 X8.00 Y8.00 Z0.40 E5.00 ; sets the jerk limits, mm/sec
M205 S0 T0 ; sets the minimum extruding and travel feed rate, mm/sec
M107
;TYPE:Custom
G90 ; use absolute coordinates
M83 ; extruder relative mode
M104 S215 ; set extruder temp
M140 S0 ; set bed temp
M190 S0 ; wait for bed temp
M109 S215 ; wait for extruder temp
G28 ; home all
G1 Z2 F240
G1 X2 Y10 F3000
G1 Z0.28 F240
G92 E0.0
G1 Y190 E15.0 F1500.0 ; intro line
G1 X2.3 F5000
G1 Y10 E30 F1200.0 ; intro line
G92 E0.0
G21 ; set units to millimeters
G90 ; use absolute coordinates
M83 ; use relative distances for extrusion
; Filament gcode
;LAYER_CHANGE
;Z:0.2
;HEIGHT:0.2
;BEFORE_LAYER_CHANGE
;0.2


G1 Z0.200 F9000.000
;AFTER_LAYER_CHANGE
;0.2
G1 X97.439 Y98.987
;TYPE:Skirt
;WIDTH:0.42
G1 F1200.000
G1 X97.930 Y98.183 E0.02955
G1 X98.338 Y97.804 E0.01745
G1 X98.810 Y97.516 E0.01733
G1 X99.334 Y97.328 E0.01745
G1 X99.885 Y97.248 E0.01745
G1 X120.004 Y97.246 E0.63084
G1 X121.005 Y97.436 E0.03195
G1 X121.866 Y97.974 E0.03183
G1 X122.473 Y98.788 E0.03183
G1 X122.745 Y99.770 E0.03195
G1 X122.753 Y120.086 E0.63700
G1 X122.561 Y121.013 E0.02968
G1 X122.070 Y121.817 E0.02955
G1 X121.646 Y122.208 E0.01809
G1 X121.149 Y122.503 E0.01809
G1 X120.603 Y122.687 E0.01809
G1 X120.029 Y122.754 E0.01809
G1 X99.914 Y122.753 E0.63071
G1 X98.987 Y122.561 E0.02968
G1 X98.183 Y122.070 E0.02955
G1 X97.792 Y121.646 E0.01809
G1 X97.497 Y121.149 E0.01809
G1 X97.313 Y120.603 E0.01809
G1 X97.246 Y120.029 E0.01809
G1 X97.247 Y99.914 E0.63071
G1 X97.427 Y99.046 E0.02779
G1 X98.992 Y97.847 F9000.000
G1 F1200.000
G1 X99.915 Y97.624 E0.02977
G1 X120.004 Y97.623 E0.62987
G1 X120.871 Y97.788 E0.02767
G1 X121.620 Y98.261 E0.02778
G1 X122.143 Y98.971 E0.02767
G1 X122.371 Y99.824 E0.02767
G1 X122.376 Y120.065 E0.63464
G1 X122.209 Y120.878 E0.02602
G1 X121.773 Y121.584 E0.02602
G1 X121.407 Y121.916 E0.01550
G1 X120.980 Y122.166 E0.01550
G1 X120.511 Y122.321 E0.01550
G1 X120.020 Y122.377 E0.01550
G1 X99.931 Y122.376 E0.62987
G1 X99.122 Y122.209 E0.02590
G1 X98.416 Y121.773 E0.02602
G1 X98.084 Y121.407 E0.01550
G1 X97.834 Y120.980 E0.01550
G1 X97.679 Y120.511 E0.01550
G1 X97.623 Y120.020 E0.01550
G1 X97.624 Y99.931 E0.62987
G1 X97.791 Y99.122 E0.02590
G1 X98.227 Y98.416 E0.02602
G1 X98.944 Y97.883 E0.02801
G1 X100.964 Y100.964 F9000.000
;TYPE:Perimeter
G1 F1200.000
G1 X119.036 Y100.964 E0.56662
G1 X119.036 Y119.036 E0.56662
G1 X100.964 Y119.036 E0.56662
G1 X100.964 Y101.024 E0.56474
G1 X100.587 Y100.587 F9000.000
G1 F1200.000
G1 X119.413 Y100.587 E0.59027
G1 X119.413 Y119.413 E0.59027
G1 X100.587 Y119.413 E0.59027
G1 X100.587 Y100.647 E0.58839
G1 X100.210 Y100.210 F9000.000
;TYPE:External perimeter
G1 F1200.000
G1 X119.790 Y100.210 E0.61392
G1 X119.790 Y119.790 E0.61392
G1 X100.210 Y119.790 E0.61392
G1 X100.210 Y100.270 E0.61204
G1 X100.596 Y100.314 F9000.000
G1 X118.160 Y101.077
;TYPE:Solid infill
;WIDTH:0.420391
G1 F1200.000
G1 X118.753 Y101.671 E0.02634
G1 X118.753 Y102.205 E0.01676
G1 X117.795 Y101.247 E0.04250
G1 X117.262 Y101.247 E0.01676
G1 X118.753 Y102.738 E0.06620
G1 X118.753 Y103.272 E0.01676
G1 X116.728 Y101.247 E0.08989
G1 X116.194 Y101.247 E0.01676
G1 X118.753 Y103.806 E0.11359
G1 X118.753 Y104.340 E0.01676
G1 X115.660 Y101.247 E0.13728
G1 X115.126 Y101.247 E0.01676
G1 X118.753 Y104.874 E0.16098
G1 X118.753 Y105.407 E0.01676
G1 X114.593 Y101.247 E0.18468
G1 X114.059 Y101.247 E0.01676
G1 X118.753 Y105.941 E0.20837
G1 X118.753 Y106.475 E0.01676
G1 X113.525 Y101.247 E0.23207
G1 X112.991 Y101.247 E0.01676
G1 X118.753 Y107.009 E0.25576
G1 X118.753 Y107.543 E0.01676
G1 X112.457 Y101.247 E0.27946
G1 X111.923 Y101.247 E0.01676
G1 X118.753 Y108.077 E0.30315
G1 X118.753 Y108.610 E0.01676
G1 X111.390 Y101.247 E0.32685
G1 X110.856 Y101.247 E0.01676
G1 X118.753 Y109.144 E0.35054
G1 X118.753 Y109.678 E0.01676
G1 X110.322 Y101.247 E0.37424
G1 X109.788 Y101.247 E0.01676
G1 X118.753 Y110.212 E0.39793
G1 X118.753 Y110.746 E0.01676
G1 X109.254 Y101.247 E0.42163
G1 X108.720 Y101.247 E0.01676
G1 X118.753 Y111.280 E0.44532
G1 X118.753 Y111.813 E0.01676
G1 X108.187 Y101.247 E0.46902
G1 X107.653 Y101.247 E0.01676
G1 X118.753 Y112.347 E0.49271
G1 X118.753 Y112.881 E0.01676
G1 X107.119 Y101.247 E0.51641
G1 X106.585 Y101.247 E0.01676
G1 X118.753 Y113.415 E0.54010
G1 X118.753 Y113.949 E0.01676
G1 X106.051 Y101.247 E0.56380
G1 X105.518 Y101.247 E0.01676
G1 X118.753 Y114.482 E0.58749
G1 X118.753 Y115.016 E0.01676
G1 X104.984 Y101.247 E0.61119
G1 X104.450 Y101.247 E0.01676
G1 X118.753 Y115.550 E0.63488
G1 X118.753 Y116.084 E0.01676
G1 X103.916 Y101.247 E0.65858
G1 X103.382 Y101.247 E0.01676
G1 X118.753 Y116.618 E0.68228
G1 X118.753 Y117.152 E0.01676
G1 X102.848 Y101.247 E0.70597
G1 X102.315 Y101.247 E0.01676
G1 X118.753 Y117.685 E0.72967
G1 X118.753 Y118.219 E0.01676
G1 X101.781 Y101.247 E0.75336
G1 X101.247 Y101.247 E0.01675
G1 X118.753 Y118.753 E0.77705
G1 X118.219 Y118.753 E0.01676
G1 X101.247 Y101.781 E0.75336
G1 X101.247 Y102.315 E0.01676
G1 X117.685 Y118.753 E0.72966
G1 X117.152 Y118.753 E0.01676
G1 X101.247 Y102.848 E0.70597
G1 X101.247 Y103.382 E0.01676
G1 X116.618 Y118.753 E0.68227
G1 X116.084 Y118.753 E0.01676
G1 X101.247 Y103.916 E0.65858
G1 X101.247 Y104.450 E0.01676
G1 X115.550 Y118.753 E0.63488
G1 X115.016 Y118.753 E0.01676
G1 X101.247 Y104.984 E0.61119
G1 X101.247 Y105.518 E0.01676
G1 X114.482 Y118.753 E0.58749
G1 X113.949 Y118.753 E0.01676
G1 X101.247 Y106.051 E0.56380
G1 X101.247 Y106.585 E0.01676
G1 X113.415 Y118.753 E0.54010
G1 X112.881 Y118.753 E0.01676
G1 X101.247 Y107.119 E0.51641
G1 X101.247 Y107.653 E0.01676
G1 X112.347 Y118.753 E0.49271
G1 X111.813 Y118.753 E0.01676
G1 X101.247 Y108.187 E0.46902
G1 X101.247 Y108.721 E0.01676
G1 X111.279 Y118.753 E0.44532
G1 X110.746 Y118.753 E0.01676
G1 X101.247 Y109.254 E0.42162
G1 X101.247 Y109.788 E0.01676
G1 X110.212 Y118.753 E0.39793
G1 X109.678 Y118.753 E0.01676
G1 X101.247 Y110.322 E0.37423
G1 X101.247 Y110.856 E0.01676
G1 X109.144 Y118.753 E0.35054
G1 X108.610 Y118.753 E0.01676
G1 X101.247 Y111.390 E0.32684
G1 X101.247 Y111.923 E0.01676
G1 X108.077 Y118.753 E0.30315
G1 X107.543 Y118.753 E0.01676
G1 X101.247 Y112.457 E0.27945
G1 X101.247 Y112.991 E0.01676
G1 X107.009 Y118.753 E0.25576
G1 X106.475 Y118.753 E0.01676
G1 X101.247 Y113.525 E0.23206
G1 X101.247 Y114.059 E0.01676
G1 X105.941 Y118.753 E0.20837
G1 X105.407 Y118.753 E0.01676
G1 X101.247 Y114.593 E0.18467
G1 X101.247 Y115.126 E0.01676
G1 X104.874 Y118.753 E0.16098
G1 X104.340 Y118.753 E0.01676
G1 X101.247 Y115.660 E0.13728
G1 X101.247 Y116.194 E0.01676
G1 X103.806 Y118.753 E0.11359
G1 X103.272 Y118.753 E0.01676
G1 X101.247 Y116.728 E0.08989
G1 X101.247 Y117.262 E0.01676
G1 X102.738 Y118.753 E0.06620
G1 X102.204 Y118.753 E0.01676
G1 X101.247 Y117.796 E0.04250
G1 X101.247 Y118.329 E0.01676
G1 X101.840 Y118.923 E0.02634
;LAYER_CHANGE
;Z:0.32
;HEIGHT:0.12
;BEFORE_LAYER_CHANGE
;0.32


G1 Z0.320 F9000.000
;AFTER_LAYER_CHANGE
;0.32
G1 X98.987 Y122.561
;TYPE:Skirt
;WIDTH:0.42
G1 F2400.000
G1 X98.183 Y122.070 E0.01854
G1 X97.792 Y121.646 E0.01135
G1 X97.497 Y121.149 E0.01135
G1 X97.313 Y120.603 E0.01135
G1 X97.246 Y120.029 E0.01135
G1 X97.247 Y99.914 E0.39565
G1 X97.439 Y98.987 E0.01862
G1 X97.930 Y98.183 E0.01854
G1 X98.338 Y97.804 E0.01095
G1 X98.810 Y97.516 E0.01087
G1 X99.334 Y97.328 E0.01095
G1 X99.885 Y97.248 E0.01095
G1 X120.004 Y97.246 E0.39573
G1 X121.005 Y97.436 E0.02004
G1 X121.866 Y97.974 E0.01997
G1 X122.473 Y98.788 E0.01997
G1 X122.745 Y99.770 E0.02004
G1 X122.753 Y120.086 E0.39960
G1 X122.561 Y121.013 E0.01862
G1 X122.070 Y121.817 E0.01854
G1 X121.646 Y122.208 E0.01135
G1 X121.149 Y122.503 E0.01135
G1 X120.603 Y122.687 E0.01135
G1 X120.029 Y122.754 E0.01135
G1 X99.914 Y122.753 E0.39565
G1 X99.046 Y122.573 E0.01744
G1 X99.122 Y122.209 F9000.000
G1 F2400.000
G1 X98.416 Y121.773 E0.01632
G1 X98.084 Y121.407 E0.00972
G1 X97.834 Y120.980 E0.00972
G1 X97.679 Y120.511 E0.00972
G1 X97.623 Y120.020 E0.00972
G1 X97.624 Y99.931 E0.39513
G1 X97.791 Y99.122 E0.01625
G1 X98.227 Y98.416 E0.01632
G1 X98.992 Y97.847 E0.01875
G1 X99.915 Y97.624 E0.01868
G1 X120.004 Y97.623 E0.39513
G1 X120.871 Y97.788 E0.01736
G1 X121.620 Y98.261 E0.01743
G1 X122.143 Y98.971 E0.01736
G1 X122.371 Y99.824 E0.01736
G1 X122.376 Y120.065 E0.39812
G1 X122.209 Y120.878 E0.01632
G1 X121.773 Y121.584 E0.01632
G1 X121.407 Y121.916 E0.00972
G1 X120.980 Y122.166 E0.00972
G1 X120.511 Y122.321 E0.00972
G1 X120.020 Y122.377 E0.00972
G1 X99.931 Y122.376 E0.39513
G1 X99.181 Y122.221 E0.01507
G1 X101.073 Y118.927 F9000.000
;TYPE:Perimeter
;WIDTH:0.45
G1 F3600.000
G1 X101.073 Y101.073 E0.37787
G1 X118.927 Y101.073 E0.37787
G1 X118.927 Y118.927 E0.37787
G1 X101.133 Y118.927 E0.37660
G1 X100.649 Y119.351 F9000.000
G1 F3600.000
G1 X100.649 Y100.649 E0.39583
G1 X119.351 Y100.649 E0.39583
G1 X119.351 Y119.351 E0.39583
G1 X100.709 Y119.351 E0.39456
G1 X100.225 Y119.775 F9000.000
;TYPE:External perimeter
G1 F1500.000
G1 X100.225 Y100.225 E0.41379
G1 X119.775 Y100.225 E0.41379
G1 X119.775 Y119.775 E0.41379
G1 X100.285 Y119.775 E0.41252
G1 X100.329 Y119.389 F9000.000
G1 X101.201 Y102.071
;TYPE:Solid infill
;WIDTH:0.455889
G1 F2400.000
G1 X101.880 Y101.392 E0.02061
G1 X102.488 Y101.392 E0.01305
G1 X101.392 Y102.488 E0.03328
G1 X101.392 Y103.096 E0.01305
G1 X103.096 Y101.392 E0.05174
G1 X103.705 Y101.392 E0.01305
G1 X101.392 Y103.705 E0.07020
G1 X101.392 Y104.313 E0.01305
G1 X104.313 Y101.392 E0.08866
G1 X104.921 Y101.392 E0.01305
G1 X101.392 Y104.921 E0.10712
G1 X101.392 Y105.530 E0.01305
G1 X105.530 Y101.392 E0.12558
G1 X106.138 Y101.392 E0.01305
G1 X101.392 Y106.138 E0.14404
G1 X101.392 Y106.746 E0.01305
G1 X106.746 Y101.392 E0.16251
G1 X107.355 Y101.392 E0.01305
G1 X101.392 Y107.355 E0.18097
G1 X101.392 Y107.963 E0.01305
G1 X107.963 Y101.392 E0.19943
G1 X108.571 Y101.392 E0.01305
G1 X101.392 Y108.571 E0.21789
G1 X101.392 Y109.180 E0.01305
G1 X109.180 Y101.392 E0.23635
G1 X109.788 Y101.392 E0.01305
G1 X101.392 Y109.788 E0.25481
G1 X101.392 Y110.396 E0.01305
G1 X110.396 Y101.392 E0.27327
G1 X111.004 Y101.392 E0.01305
G1 X101.392 Y111.004 E0.29173
G1 X101.392 Y111.613 E0.01305
G1 X111.613 Y101.392 E0.31019
G1 X112.221 Y101.392 E0.01305
G1 X101.392 Y112.221 E0.32866
G1 X101.392 Y112.829 E0.01305
G1 X112.829 Y101.392 E0.34712
G1 X113.438 Y101.392 E0.01305
G1 X101.392 Y113.438 E0.36558
G1 X101.392 Y114.046 E0.01305
G1 X114.046 Y101.392 E0.38404
G1 X114.654 Y101.392 E0.01305
G1 X101.392 Y114.654 E0.40250
G1 X101.392 Y115.263 E0.01305
G1 X115.263 Y101.392 E0.42096
G1 X115.871 Y101.392 E0.01305
G1 X101.392 Y115.871 E0.43942
G1 X101.392 Y116.479 E0.01305
G1 X116.479 Y101.392 E0.45788
G1 X117.088 Y101.392 E0.01305
G1 X101.392 Y117.088 E0.47634
G1 X101.392 Y117.696 E0.01305
G1 X117.696 Y101.392 E0.49481
G1 X118.304 Y101.392 E0.01305
G1 X101.392 Y118.304 E0.51327
G1 X101.392 Y118.608 E0.00653
G1 X101.696 Y118.608 E0.00653
G1 X118.608 Y101.696 E0.51327
G1 X118.608 Y102.304 E0.01305
G1 X102.304 Y118.608 E0.49481
G1 X102.912 Y118.608 E0.01305
G1 X118.608 Y102.912 E0.47635
G1 X118.608 Y103.521 E0.01305
G1 X103.521 Y118.608 E0.45789
G1 X104.129 Y118.608 E0.01305
G1 X118.608 Y104.129 E0.43943
G1 X118.608 Y104.737 E0.01305
G1 X104.737 Y118.608 E0.42096
G1 X105.346 Y118.608 E0.01305
G1 X118.608 Y105.346 E0.40250
G1 X118.608 Y105.954 E0.01305
G1 X105.954 Y118.608 E0.38404
G1 X106.562 Y118.608 E0.01305
G1 X118.608 Y106.562 E0.36558
G1 X118.608 Y107.171 E0.01305
G1 X107.171 Y118.608 E0.34712
G1 X107.779 Y118.608 E0.01305
G1 X118.608 Y107.779 E0.32866
G1 X118.608 Y108.387 E0.01305
G1 X108.387 Y118.608 E0.31020
G1 X108.995 Y118.608 E0.01305
G1 X118.608 Y108.995 E0.29174
G1 X118.608 Y109.604 E0.01305
G1 X109.604 Y118.608 E0.27327
G1 X110.212 Y118.608 E0.01305
G1 X118.608 Y110.212 E0.25481
G1 X118.608 Y110.820 E0.01305
G1 X110.820 Y118.608 E0.23635
G1 X111.429 Y118.608 E0.01305
G1 X118.608 Y111.429 E0.21789
G1 X118.608 Y112.037 E0.01305
G1 X112.037 Y118.608 E0.19943
G1 X112.645 Y118.608 E0.01305
G1 X118.608 Y112.645 E0.18097
G1 X118.608 Y113.254 E0.01305
G1 X113.254 Y118.608 E0.16251
G1 X113.862 Y118.608 E0.01305
G1 X118.608 Y113.862 E0.14405
G1 X118.608 Y114.470 E0.01305
G1 X114.470 Y118.608 E0.12559
G1 X115.079 Y118.608 E0.01305
G1 X118.608 Y115.079 E0.10712
G1 X118.608 Y115.687 E0.01305
G1 X115.687 Y118.608 E0.08866
G1 X116.295 Y118.608 E0.01305
G1 X118.608 Y116.295 E0.07020
G1 X118.608 Y116.903 E0.01305
G1 X116.903 Y118.608 E0.05174
G1 X117.512 Y118.608 E0.01305
G1 X118.608 Y117.512 E0.03328
G1 X118.608 Y118.120 E0.01305
G1 X117.929 Y118.799 E0.02061
;LAYER_CHANGE
;Z:0.44
;HEIGHT:0.12
;BEFORE_LAYER_CHANGE
;0.44


G1 Z0.440 F9000.000
;AFTER_LAYER_CHANGE
;0.44
G1 X118.927 Y118.927
;TYPE:Perimeter
;WIDTH:0.45
G1 F3600.000
G1 X101.073 Y118.927 E0.37787
G1 X101.073 Y101.073 E0.37787
G1 X118.927 Y101.073 E0.37787
G1 X118.927 Y118.867 E0.37660
G1 X119.351 Y119.351 F9000.000
G1 F3600.000
G1 X100.649 Y119.351 E0.39583
G1 X100.649 Y100.649 E0.39583
G1 X119.351 Y100.649 E0.39583
G1 X119.351 Y119.291 E0.39456
G1 X119.775 Y119.775 F9000.000
;TYPE:External perimeter
G1 F1500.000
G1 X100.225 Y119.775 E0.41379
G1 X100.225 Y100.225 E0.41379
G1 X119.775 Y100.225 E0.41379
G1 X119.775 Y119.715 E0.41252
G1 X119.389 Y119.671 F9000.000
G1 X102.071 Y118.799
;TYPE:Solid infill
;WIDTH:0.455889
G1 F2400.000
G1 X101.392 Y118.120 E0.02061
G1 X101.392 Y117.512 E0.01305
G1 X102.488 Y118.608 E0.03328
G1 X103.096 Y118.608 E0.01305
G1 X101.392 Y116.904 E0.05174
G1 X101.392 Y116.295 E0.01305
G1 X103.705 Y118.608 E0.07020
G1 X104.313 Y118.608 E0.01305
G1 X101.392 Y115.687 E0.08866
G1 X101.392 Y115.079 E0.01305
G1 X104.921 Y118.608 E0.10712
G1 X105.530 Y118.608 E0.01305
G1 X101.392 Y114.470 E0.12558
G1 X101.392 Y113.862 E0.01305
G1 X106.138 Y118.608 E0.14404
G1 X106.746 Y118.608 E0.01305
G1 X101.392 Y113.254 E0.16251
G1 X101.392 Y112.645 E0.01305
G1 X107.355 Y118.608 E0.18097
G1 X107.963 Y118.608 E0.01305
G1 X101.392 Y112.037 E0.19943
G1 X101.392 Y111.429 E0.01305
G1 X108.571 Y118.608 E0.21789
G1 X109.180 Y118.608 E0.01305
G1 X101.392 Y110.820 E0.23635
G1 X101.392 Y110.212 E0.01305
G1 X109.788 Y118.608 E0.25481
G1 X110.396 Y118.608 E0.01305
G1 X101.392 Y109.604 E0.27327
G1 X101.392 Y108.996 E0.01305
G1 X111.004 Y118.608 E0.29173
G1 X111.613 Y118.608 E0.01305
G1 X101.392 Y108.387 E0.31019
G1 X101.392 Y107.779 E0.01305
G1 X112.221 Y118.608 E0.32866
G1 X112.829 Y118.608 E0.01305
G1 X101.392 Y107.171 E0.34712
G1 X101.392 Y106.562 E0.01305
G1 X113.438 Y118.608 E0.36558
G1 X114.046 Y118.608 E0.01305
G1 X101.392 Y105.954 E0.38404
G1 X101.392 Y105.346 E0.01305
G1 X114.654 Y118.608 E0.40250
G1 X115.263 Y118.608 E0.01305
G1 X101.392 Y104.737 E0.42096
G1 X101.392 Y104.129 E0.01305
G1 X115.871 Y118.608 E0.43942
G1 X116.479 Y118.608 E0.01305
G1 X101.392 Y103.521 E0.45788
G1 X101.392 Y102.912 E0.01305
G1 X117.088 Y118.608 E0.47634
G1 X117.696 Y118.608 E0.01305
G1 X101.392 Y102.304 E0.49481
G1 X101.392 Y101.696 E0.01305
G1 X118.304 Y118.608 E0.51327
G1 X118.608 Y118.608 E0.00653
G1 X118.608 Y118.304 E0.00653
G1 X101.696 Y101.392 E0.51327
G1 X102.304 Y101.392 E0.01305
G1 X118.608 Y117.696 E0.49481
G1 X118.608 Y117.088 E0.01305
G1 X102.912 Y101.392 E0.47635
G1 X103.521 Y101.392 E0.01305
G1 X118.608 Y116.479 E0.45789
G1 X118.608 Y115.871 E0.01305
G1 X104.129 Y101.392 E0.43943
G1 X104.737 Y101.392 E0.01305
G1 X118.608 Y115.263 E0.42096
G1 X118.608 Y114.654 E0.01305
G1 X105.346 Y101.392 E0.40250
G1 X105.954 Y101.392 E0.01305
G1 X118.608 Y114.046 E0.38404
G1 X118.608 Y113.438 E0.01305
G1 X106.562 Y101.392 E0.36558
G1 X107.171 Y101.392 E0.01305
G1 X118.608 Y112.829 E0.34712
G1 X118.608 Y112.221 E0.01305
